public/assets/img/tech-logo/nodejs.svg

<svg width="100" height="100" viewBox="0 0 100 100" fill="none" xmlns="http://www.w3.org/2000/svg">
<g id="nodejs">
<g id="nodejs_2">
<path id="Vector" d="M46.2785 1.06735C48.758 -0.351924 51.9876 -0.358335 54.465 1.06735C66.9286 8.10993 79.3961 15.1415 91.8576 22.1883C94.2014 23.5086 95.7692 26.1171 95.7454 28.8178V71.1886C95.7628 74.0012 94.0401 76.672 91.5673 77.9623C79.1447 84.9661 66.7285 91.9784 54.308 98.9821C51.7772 100.429 48.4827 100.318 46.031 98.7521C42.3067 96.5931 38.576 94.4447 34.8513 92.2879C34.0902 91.8341 33.2322 91.473 32.6948 90.735C33.1699 90.0947 34.0193 90.0149 34.7096 89.7353C36.2642 89.241 37.692 88.4475 39.1202 87.6775C39.4813 87.4303 39.9222 87.525 40.2684 87.7462C43.4531 89.5722 46.6097 91.4513 49.8051 93.2598C50.4868 93.6534 51.177 93.1309 51.7597 92.8061C63.9501 85.9163 76.1555 79.0525 88.3438 72.1606C88.7954 71.9433 89.0451 71.4639 89.0084 70.9692C89.0169 56.992 89.0105 43.0123 89.0126 29.035C89.0643 28.4737 88.7395 27.9576 88.232 27.7279C75.8524 20.7562 63.4793 13.7738 51.1019 6.80035C50.8874 6.65292 50.6334 6.57382 50.3732 6.57344C50.1129 6.57306 49.8587 6.65141 49.6438 6.79821C37.2664 13.7738 24.8954 20.7626 12.518 27.734C12.0123 27.9641 11.6728 28.4716 11.733 29.035C11.7352 43.0123 11.733 56.992 11.733 70.9714C11.7116 71.2127 11.7646 71.4549 11.8849 71.6652C12.0053 71.8756 12.1872 72.044 12.4062 72.1478C15.7091 74.0208 19.0164 75.8806 22.3215 77.7472C24.1834 78.7494 26.4696 79.3449 28.521 78.577C30.3314 77.9278 31.6003 76.0804 31.5658 74.1582C31.5829 60.2626 31.5573 46.3647 31.5786 32.4712C31.5334 31.8543 32.1185 31.3447 32.7183 31.4027C34.3053 31.392 35.8945 31.3814 37.4815 31.407C38.144 31.392 38.5998 32.0563 38.5179 32.6778C38.5115 46.6614 38.535 60.6454 38.5072 74.6291C38.5115 78.3559 36.9804 82.411 33.5332 84.2345C29.2864 86.4345 24.0374 85.9679 19.8419 83.8584C16.2099 82.0456 12.7438 79.9062 9.17621 77.9641C6.69702 76.6809 4.98286 73.9994 5.00031 71.189V28.8178C4.97431 26.0611 6.60442 23.4053 9.02128 22.1043C21.4418 15.0948 33.8601 8.08001 46.2785 1.06735Z" fill="#8CC84B"/>
<path id="Vector_2" d="M57.1141 30.4179C62.5312 30.0692 68.3304 30.2113 73.2051 32.88C76.9793 34.925 79.0717 39.217 79.1383 43.41C79.0329 43.9756 78.4416 44.2876 77.9017 44.2488C76.33 44.2466 74.7579 44.2701 73.1862 44.2381C72.5195 44.2637 72.132 43.649 72.0483 43.0596C71.5967 41.0534 70.5026 39.0664 68.6143 38.0987C65.7156 36.6474 62.3545 36.7204 59.1937 36.7507C56.8862 36.8732 54.4048 37.073 52.4499 38.4299C50.9491 39.4578 50.4932 41.5327 51.0289 43.2038C51.5339 44.4037 52.919 44.7908 54.0522 45.1477C60.5805 46.8551 67.4985 46.6852 73.9021 48.9322C76.5533 49.8482 79.1468 51.629 80.0543 54.4048C81.2414 58.1252 80.721 62.5721 78.0741 65.5589C75.9276 68.0167 72.8012 69.3544 69.6831 70.0809C65.535 71.0059 61.2302 71.0294 57.0176 70.6187C53.0564 70.1671 48.9343 69.1264 45.8764 66.4275C43.2615 64.157 41.9843 60.6194 42.1111 57.2049C42.1414 56.6283 42.7155 56.2262 43.2679 56.2736C44.8507 56.2608 46.4334 56.2565 48.0162 56.2757C48.6483 56.2305 49.117 56.7768 49.1494 57.3727C49.4415 59.2841 50.1598 61.2903 51.8266 62.4236C55.0434 64.4989 59.0797 64.3568 62.7631 64.4149C65.8146 64.2795 69.2401 64.2386 71.7303 62.2217C73.0441 61.0713 73.4334 59.1467 73.0783 57.4909C72.6937 56.093 71.2313 55.4416 69.9755 55.0156C63.5309 52.977 56.5357 53.7167 50.1534 51.4114C47.5624 50.4957 45.0569 48.7644 44.0614 46.1025C42.6724 42.3351 43.3089 37.6752 46.2333 34.7893C49.0846 31.9187 53.2007 30.8132 57.1141 30.4175V30.4179Z" fill="#8CC84B"/>
</g>
</g>
</svg>

<svg xmlns="http://www.w3.org/2000/svg" width="100" height="100" fill="none"><g fill="#8CC84B"><path d="M46.279 1.067c2.479-1.419 5.709-1.425 8.186 0C66.929 8.11 79.396 15.142 91.858 22.188c2.343 1.32 3.911 3.93 3.887 6.63v42.37c.018 2.813-1.705 5.484-4.178 6.774-12.422 7.004-24.838 14.016-37.259 21.02-2.53 1.447-5.825 1.336-8.277-.23-3.724-2.159-7.455-4.307-11.18-6.464-.76-.454-1.619-.815-2.156-1.553.475-.64 1.324-.72 2.015-1 1.554-.494 2.982-1.287 4.41-2.058.361-.247.802-.152 1.148.07 3.185 1.825 6.342 3.704 9.537 5.513.682.393 1.372-.13 1.955-.454 12.19-6.89 24.396-13.754 36.584-20.645a1.21 1.21 0 0 0 .664-1.192c.009-13.977.002-27.957.005-41.934a1.31 1.31 0 0 0-.781-1.307C75.852 20.756 63.479 13.774 51.102 6.8a1.29 1.29 0 0 0-1.458-.002c-12.378 6.976-24.749 13.965-37.126 20.936-.506.23-.845.738-.785 1.301q.002 20.967 0 41.936a1.19 1.19 0 0 0 .673 1.177c3.303 1.873 6.61 3.733 9.916 5.6 1.861 1.001 4.148 1.597 6.199.829 1.81-.65 3.08-2.497 3.045-4.419.017-13.895-.009-27.793.013-41.687-.046-.617.54-1.126 1.14-1.068 1.586-.011 3.175-.022 4.762.004.663-.015 1.119.65 1.037 1.27-.007 13.984.017 27.968-.01 41.952.003 3.727-1.528 7.782-4.975 9.605-4.247 2.2-9.496 1.734-13.691-.376-3.632-1.812-7.098-3.952-10.666-5.894C6.697 76.681 4.983 74 5 71.19V28.818c-.026-2.757 1.604-5.413 4.021-6.714Q27.651 11.588 46.28 1.067"/><path d="M57.114 30.418c5.417-.349 11.216-.207 16.091 2.462 3.774 2.045 5.867 6.337 5.933 10.53-.105.566-.696.878-1.236.839-1.572-.002-3.144.021-4.716-.01-.667.025-1.054-.59-1.138-1.18-.451-2.006-1.545-3.993-3.434-4.96-2.898-1.452-6.26-1.379-9.42-1.348-2.308.122-4.79.322-6.744 1.679-1.5 1.028-1.957 3.103-1.421 4.774.505 1.2 1.89 1.587 3.023 1.944 6.529 1.707 13.447 1.537 19.85 3.784 2.651.916 5.245 2.697 6.152 5.473 1.187 3.72.667 8.167-1.98 11.154-2.146 2.458-5.273 3.795-8.39 4.522-4.149.925-8.454.948-12.666.538-3.962-.452-8.084-1.493-11.142-4.192-2.614-2.27-3.892-5.808-3.765-9.222.03-.577.605-.979 1.157-.931 1.583-.013 3.165-.017 4.748.002.632-.046 1.101.5 1.133 1.097.292 1.911 1.01 3.917 2.678 5.05 3.216 2.076 7.253 1.934 10.936 1.992 3.052-.136 6.477-.176 8.967-2.193 1.314-1.15 1.703-3.075 1.348-4.731-.384-1.398-1.847-2.05-3.103-2.475-6.444-2.039-13.44-1.3-19.822-3.605-2.59-.915-5.096-2.647-6.092-5.309-1.389-3.767-.752-8.427 2.172-11.313 2.852-2.87 6.968-3.976 10.881-4.372"/></g></svg>
